X:1
T:Andianne à premer
T:Claudio Saracini
T:Source : Le terze Musische per cantar e sonar---Venetia---A.Vincenti---1620. Editor : André Vierendeels (12/12/15).
T:Andianne à premer
C:Claudio Saracini
%%score 1 2
L:1/8
Q:1/4=86
M:4/4
K:C
V:1 treble nm="Soprano" snm="S"
V:2 bass nm="BC" snm="BC"
V:1
 z2 B2 BcBc | d3 d c3 c | B4 B4 | z B d4 c2 | BABG cBcA | dcdG A4 | z2 ^ce A2 Bc | d4 d4 | z8 | %9
w: An- dian- * * *|* ne'à pre- mer|lat- te,|à co- glier|fio- * * * * * * *|* * * * ri,|dir- si'a Tir- si Li-|co- ri,||
 c2 B2 A2 Bc | d4 d4 | z4 B2 A2 | ^G2 AB c4- | c4 c4 | z edc B4- | B4 z dcB |"^-natural" A6 c2 | %17
w: al- tro lat- te'i non|chieg- go,|al- tro|lat- te'i non chieg-|* go,|se non sol quel|_ che nel bel|sen ti|
 B8 | A8 :: G2 B/A/B/c/ d3 G | A6 A2 | B4 B4 | c6 Ac | G8 | F8 | d6 Bd | A8 | G8 | z8 | A4 dddc | %30
w: veg-|gio.|Ne fio- * * * * ri'al-|tri de-|si- o|(Tir- si ri-|spo-|se),|(Tir- si ri-|spo-|se),||che de le la- bra|
 Bedc d4- | d4 c4 | z8 | G4 cccB | AdcB A4- | A8 | G8 :| %37
w: tue le vi- ve ro-|* se,||che de- le la- bra|tue le vi- ve ro-||se.|
V:2
 G,,8 | G,4 A,4 | G,8 | G,4 ^F,4 | G,4 F,4 | E,4 D,4 | C,E, A,,6 | G,,8 | G,2 F,2 E,2 F,G, | %9
 A,6 G,2 | ^F,4 D,2 C,2 | B,,2 C,D, E,4 | E,2 D,2 C,4- | C,4 z C,B,,A,, | ^G,,8 | z B,A,G, ^F,4- | %16
 F,4 ^C,4 | E,8 | A,,8 :: G,,4 G,2 E,2 | C,4 D,4 | G,,8 | F,,2 D,,F,, C,4- | C,8 | F,,8 | %25
 G,,2 E,,G,, D,4- | D,8 | G,,8 | G,4 CCCB, | ^F,8 | G,4 G,,4- | G,,4 C,4 | D,4 G,G,G,F, | E,8 | %34
 D,8 | D,8 | G,,8 :| %37

